common/resources/fonts/svg/clear-formatting.svg

<?xml version="1.0" encoding="UTF-8" standalone="no"?>
<svg width="1024px" height="1024px" viewBox="0 0 1024 1024" version="1.1" xmlns="http://www.w3.org/2000/svg" xmlns:xlink="http://www.w3.org/1999/xlink">
    <!-- Generator: Sketch 3.7.1 (28215) - http://www.bohemiancoding.com/sketch -->
    <title>clear-formatting</title>
    <desc>Created with Sketch.</desc>
    <defs></defs>
    <g id="Page-1" stroke="none" stroke-width="1" fill="none" fill-rule="evenodd">
        <g id="clear-formatting" fill="#000000">
            <path d="M78,848.125 L581.4375,848.125 L581.4375,960 L78,960 L78,848.125 Z M861.125,176.875 L596.680469,176.875 L436.066426,792.1875 L320.443613,792.1875 L481.055908,176.875 L245.8125,176.875 L245.8125,65 L861.125,65 L861.125,176.875 Z M890.644268,960 L777.21875,846.574482 L663.793232,960 L609.40625,905.613018 L722.831768,792.1875 L609.40625,678.761982 L663.793232,624.375 L777.21875,737.800518 L890.644268,624.375 L945.03125,678.761982 L831.605732,792.1875 L945.03125,905.613018 L890.644268,960 Z" id="Shape"></path>
        </g>
    </g>
</svg>

<svg width="1024" height="1024" viewBox="0 0 1024 1024">
    <path d="M78 848.125h503.438V960H78V848.125zm783.125-671.25H596.68L436.066 792.188H320.444l160.612-615.313H245.813V65h615.312v111.875zM890.645 960L777.218 846.574 663.793 960l-54.387-54.387 113.426-113.426-113.426-113.425 54.387-54.387L777.22 737.801l113.425-113.426 54.387 54.387-113.425 113.426L945.03 905.612 890.644 960z" fill-rule="evenodd"/>
</svg>
